X:1405
T:Miss Nancy Frowns
P:Miss Nancy Frowns
C:Traditional?
R:Jig (8x32)
B:RSCDS 14-5
Z:Anselm Lingnau <anselm@strathspey.org>
M:6/8
L:1/8
K:G
G|"G"GAG G2e|dBG "D"AFD|"G"GAG G2e|dBG "A"A2 G|
  "G"GAG G2e|dBG "D"AFD|"G"GAG G2e|dBG "A"A2||
A|"G"GAB d2g|"D"dBG AFD|"G"GAB d2g|"D"dBG A2 g|
  "G"bag "A"age|egc "Em"BAG|"A" ABA "D"FED|"A"EA"D"F "G"[G2B,2]|]
